X: 33969
T: Redican's Mother
R: slip jig
M: 9/8
K: Dmajor
FAA FAB AFD|FAA FAB ~d3|FAA FAB AFD|~f3 edc B2A:|
~f3 efe d2e|~f3 def gfe|~f3 efe d2A|BAF DFA B2A:|

